X: 40041
T: Throne, The
R: reel
M: 4/4
K: Aminor
ADDA DDAD|ABcd cBAG|ADDA DDF2|GFED CEG^G|
ADDA DDAD|ABcd cBAG|ADDA DDF2|GFED CEG^G:|
|:Addc ABcA|GEED CDEG|Addc ABcd|egge d4|
Addc ABcA|GEED CDEG|AdcA GED2|C2A,2 A,4:|

